X:27
T:Ferry reel, The
R:Reel
O:Shetland
M:4/4
K:D
A|\
d2dA d2d2|efed c2A2|BcdB ABAF|G2E2 E3A|\
d2dA d2d2|efed c2A2|BcdB AGFE|D2d2 d3::\
e|\
f2fA f2fA|fgag fedf|e2eA e2eA|efed cBAd|
f2fA f2fA|fgag fedf|efgf edcB|A2a2 a3:|
